images/icons/source/magic-hat.svg

<svg width="72" height="72" viewBox="0 0 72 72" version="1.1" xmlns="http://www.w3.org/2000/svg" xmlns:xlink="http://www.w3.org/1999/xlink" xmlns:figma="http://www.figma.com/figma/ns">
<title>magic-hat</title>
<desc>Created using Figma</desc>
<g id="Canvas" transform="translate(57 45)" figma:type="canvas">
<mask id="mask0_alpha" mask-type="alpha">
<path d="M -57 -45L 15 -45L 15 27L -57 27L -57 -45Z" fill="#FFFFFF"/>
</mask>
<g id="magic-hat" style="mix-blend-mode:normal;" mask="url(#mask0_alpha)" figma:type="frame">
<g id="Vector" style="mix-blend-mode:normal;" figma:type="vector">
<use xlink:href="#path0_fill" transform="translate(-57 -45)" fill="#3BB75E" style="mix-blend-mode:normal;"/>
<use xlink:href="#path1_fill" transform="translate(-57 -45)" fill="#3BB75E" style="mix-blend-mode:normal;"/>
</g>
</g>
</g>
<defs>
<path id="path0_fill" fill-rule="evenodd" d="M 36 70C 54.7777 70 70 54.7777 70 36C 70 17.2223 54.7777 2 36 2C 17.2223 2 2 17.2223 2 36C 2 54.7777 17.2223 70 36 70ZM 36 72C 55.8823 72 72 55.8823 72 36C 72 16.1177 55.8823 0 36 0C 16.1177 0 0 16.1177 0 36C 0 55.8823 16.1177 72 36 72Z"/>
<path id="path1_fill" fill-rule="evenodd" d="M 22.2545 21.1768C 21.9527 20.9081 21.9259 20.4459 22.1941 20.1441C 22.4632 19.8428 22.9249 19.8155 23.2267 20.0842L 26.3778 22.8876C 26.6796 23.1563 26.7064 23.618 26.4383 23.9198C 26.2935 24.0821 26.0931 24.165 25.8912 24.165C 25.7181 24.165 25.5451 24.1041 25.4056 23.9802L 22.2545 21.1768ZM 27.583 14.6679C 27.4426 14.2896 27.6352 13.8683 28.0141 13.7279C 28.3929 13.5884 28.8136 13.7805 28.9541 14.1594L 31.7575 21.7165C 31.8979 22.0949 31.7054 22.5161 31.326 22.6565C 31.2427 22.6877 31.1568 22.7024 31.072 22.7024C 30.7751 22.7024 30.4957 22.52 30.3865 22.225L 27.583 14.6679ZM 45.5622 23.9198C 45.2941 23.618 45.3209 23.1558 45.6227 22.8876L 48.7743 20.0842C 49.0765 19.815 49.5383 19.8428 49.8069 20.1441C 50.0751 20.4459 50.0482 20.9086 49.7464 21.1768L 46.5949 23.9802C 46.4554 24.1041 46.2819 24.165 46.1093 24.165C 45.9074 24.165 45.707 24.0821 45.5622 23.9198ZM 40.243 21.7165L 43.0464 14.1594C 43.1868 13.7805 43.6086 13.5875 43.986 13.7279C 44.3653 13.8683 44.5579 14.2896 44.4174 14.6679L 41.614 22.225C 41.5043 22.52 41.2254 22.7024 40.9285 22.7024C 40.8436 22.7024 40.7578 22.6877 40.674 22.6565C 40.2951 22.5161 40.1021 22.0949 40.243 21.7165ZM 35.2689 20.9949L 35.2689 11.7313C 35.2689 11.3272 35.5965 11 36.0002 11C 36.4039 11 36.7316 11.3272 36.7316 11.7313L 36.7316 20.9949C 36.7316 21.3991 36.4039 21.7263 36.0002 21.7263C 35.5965 21.7263 35.2689 21.3991 35.2689 20.9949ZM 46.6426 30.2717C 46.6426 33.2507 36.6419 33.2848 36.2162 33.2848C 35.7906 33.2848 25.7888 33.2507 25.7888 30.2717C 25.7888 29.8675 26.1165 29.5403 26.5202 29.5403C 26.9107 29.5403 27.2296 29.846 27.2505 30.2312C 27.332 30.3707 27.5855 30.5355 27.9921 30.7051C 29.1423 30.0157 32.289 29.5199 36.0002 29.5199C 39.8978 29.5199 43.1727 30.0664 44.1659 30.8099C 44.7339 30.6042 45.083 30.3994 45.181 30.2312C 45.2019 29.846 45.5213 29.5403 45.9113 29.5403C 46.3155 29.5403 46.6426 29.8675 46.6426 30.2717ZM 36.0002 59.5373C 28.7337 59.5373 24.7362 57.8957 24.6567 57.0279L 26.3417 40.7985C 27.3997 41.0121 28.5431 41.191 29.758 41.3285C 31.738 41.5533 33.8384 41.6674 36.0002 41.6674C 39.4863 41.6674 42.8714 41.3583 45.6588 40.7961L 47.3442 57.0279C 47.2648 57.8957 43.2673 59.5373 36.0002 59.5373ZM 36.0002 35.4793C 26.586 35.4793 20.8045 33.0556 20.8045 31.3175C 20.8045 29.5798 26.586 27.1557 36.0002 27.1557C 45.415 27.1557 51.1955 29.5798 51.1955 31.3175C 51.1955 33.0556 45.415 35.4793 36.0002 35.4793ZM 36.0002 25.693C 27.9248 25.693 19.3419 27.6642 19.3419 31.3175C 19.3419 33.2863 21.8367 34.7655 25.3988 35.7123L 23.1965 56.926L 23.1926 57.0015C 23.1926 59.7484 29.8317 61 36.0002 61C 42.1693 61 48.8084 59.7484 48.8084 57.0015L 46.6012 35.7123C 50.1638 34.766 52.6581 33.2867 52.6581 31.3175C 52.6581 27.6642 44.0757 25.693 36.0002 25.693Z"/>
</defs>
</svg>

<svg width="72" height="72" viewBox="0 0 72 72" xmlns="http://www.w3.org/2000/svg" xmlns:xlink="http://www.w3.org/1999/xlink" xmlns:figma="http://www.figma.com/figma/ns">
    <title>
        magic-hat
    </title>
    <desc>
        Created using Figma
    </desc>
    <g transform="translate(57 45)" figma:type="canvas">
        <mask id="a">
            <path d="M-57-45h72v72h-72v-72z" fill="#FFF"/>
        </mask>
        <g style="mix-blend-mode:normal" mask="url(#a)" figma:type="frame">
            <g style="mix-blend-mode:normal" figma:type="vector" transform="translate(-57 -45)" fill="#3BB75E">
                <use xlink:href="#b" style="mix-blend-mode:normal"/>
                <use xlink:href="#c" style="mix-blend-mode:normal"/>
            </g>
        </g>
    </g>
    <defs>
        <path id="b" fill-rule="evenodd" d="M36 70c18.778 0 34-15.222 34-34S54.778 2 36 2 2 17.222 2 36s15.222 34 34 34zm0 2c19.882 0 36-16.118 36-36S55.882 0 36 0 0 16.118 0 36s16.118 36 36 36z"/>
        <path id="c" fill-rule="evenodd" d="M22.255 21.177a.732.732 0 0 1 .972-1.093l3.15 2.804a.731.731 0 1 1-.971 1.092l-3.151-2.803zm5.328-6.51a.731.731 0 1 1 1.371-.508l2.803 7.557a.73.73 0 1 1-1.37.509l-2.804-7.557zm17.98 9.253a.731.731 0 0 1 .06-1.032l3.151-2.804a.731.731 0 1 1 .972 1.093l-3.151 2.803a.73.73 0 0 1-1.033-.06zm-5.32-2.204l2.803-7.557a.731.731 0 1 1 1.371.509l-2.803 7.557a.732.732 0 1 1-1.371-.509zm-4.974-.721V11.73a.731.731 0 1 1 1.463 0v9.264a.731.731 0 1 1-1.463 0zm11.374 9.277c0 2.979-10.001 3.013-10.427 3.013-.425 0-10.427-.034-10.427-3.013a.731.731 0 0 1 1.461-.04c.082.139.335.303.742.473 1.15-.69 4.297-1.185 8.008-1.185 3.898 0 7.173.546 8.166 1.29.568-.206.917-.41 1.015-.579a.732.732 0 0 1 1.462.04zM36 59.537c-7.266 0-11.264-1.641-11.343-2.51l1.685-16.229a40.12 40.12 0 0 0 3.416.53c1.98.225 4.08.34 6.242.34 3.486 0 6.871-.31 9.659-.872l1.685 16.232c-.08.868-4.077 2.51-11.344 2.51zm0-24.058c-9.414 0-15.195-2.423-15.195-4.162 0-1.737 5.781-4.161 15.195-4.161 9.415 0 15.196 2.424 15.196 4.162S45.415 35.478 36 35.478zm0-9.786c-8.075 0-16.658 1.971-16.658 5.624 0 1.97 2.495 3.449 6.057 4.395l-2.203 21.214-.003.075C23.193 59.748 29.832 61 36 61c6.17 0 12.808-1.252 12.808-3.998l-2.207-21.29c3.563-.946 6.057-2.425 6.057-4.395 0-3.653-8.582-5.624-16.658-5.624z"/>
    </defs>
</svg>
